X:1
T:Cantantibus organis
T:Alessandro Kirschner
T:Cantantibus organis parafrasi sull'antifona gregoriana
C:7vento2
%%score [ ( 1 2 ) ( 3 4 ) ( 5 6 ) ( 7 8 9 ) ]
L:1/8
Q:1/4=54
M:2/4
K:C
V:1 treble nm="Soprano" snm="S"
V:2 treble 
V:3 treble nm="Alto" snm="A"
V:4 treble 
V:5 treble-8 nm="Tenore" snm="T"
V:6 treble-8 
V:7 bass nm="Basso" snm="B"
V:8 bass 
V:9 bass 
V:1
 z4 | z4 | z4 |[M:3/4] z6 | z6 |[M:2/4] z4 | z4 | z4 | z4 |[M:3/4]"^solo Soprani I" z4 z!mf! B | %10
w: ||||||||||
w: |||||||||Can-|
[M:2/4] (3dd^c!mf! de | e2 e2- | e4- | e4 |[M:3/4]!f!!<(! (e^f fe!<)! (fg) | g2 g4-) | g6- | %17
w: ||||can- tan- ti- bus or- *|ga- nis|_|
w: tan- ti- bus or- *|ga- nis,|_|||||
 g z z4 ||[M:6/8]!p!"^Poco più largo" ([EA]6- | [EA]3 [FB]3- | [FB]3 [EA]3- | [EA]3 [FB]3- | %22
w: |Cae-|* ci-|* li-|* a,|
w: |||||
 [FB]3) ([EA]3- | [EA]3 [FB]3- | [FB]3 [Gc]3 |!<(! [Ad]6)!<)! | %26
w: _ Cae-|* ci-|* li-|a,|
w: ||||
!mp!"^Poco più mosso" ([^ce]3 [ce]2 [ce] | [Be]3) z!mf! ((dB) | B(^cd) d3 | %29
w: Cae- ci- li-|a, Cae- *|ci- li- * a|
w: |||
 !tenuto!d2 !tenuto!^c2 !tenuto!B2- | B)!<(! GA (BAG | =cB)!<)!A!f! d2!>(! A!>)! |!f! d3!>(! A3- | %33
w: Do- mi- no|_ de- can- ta- * *|* * bat di- cens,|di- cens,|
w: ||||
"^movendo" A3!>)! z!mf! Bc |!<(! (dcB ed)!<)!c |!f! f2 d- d3- | d!<(! cd _edc!<)! |!f! f2 d- d3 | %38
w: _ de- can-|ta- * * * * bat|di- cens, _|_ de- can- ta- * bat|di- cens, _|
w: |||||
!ff! f3!>(! c3- |"^dim. molto e legatissimo" c6!>)! || %40
w: di- cens:|_|
w: ||
[M:4/4]!pp!"^Lento estatico""^1 solo"!mp! _d8 | c8 | _B8 | _B8 |!p!"^tutti" (_c_A (c_e) c2 _B2 | %45
w: ||||fi- at cor _ me- um|
w: Cor|_|me-|um,||
 _c_A _Bc AB _G2- | G6!<(! _e2)!<)! |!mf! !tenuto![_B_e]3 !tenuto![_AB]3 !tenuto![Be]2 | %48
w: im- * ma- * cu- la- tum|_ _|ut non con-|
w: |||
 [_B_e]4!>(! B4-!>)! | B!mp!c (c_d)!>(! d4- | d4-!>)! d!p!_e!<(! (ef) | f4!<)!!mp! (_a4 | %52
w: fun- dar.|_ Cor me- * um,|_ _ cor me- *|um im-|
w: ||||
 _e4 f2 f2 |!>(! c8)!>)! |!p! (_e4 _B4 | c2 c2!<(! (F2 f2))!<)! | %56
w: ma- cu- la-|tum,|im- ma-|cu- la- tum _|
w: ||||
!mf! !tenuto![_B_e]3 !tenuto![_AB]3 !tenuto![Be]2 | _e4 _B2- B"^Poco più mosso" z | x8 | %59
w: ut non con-|fun dar, _||
w: |||
!mp! z2 =ed eg (^f2 | e8-) | e2- (3e2!mf! (e2 g2) (^f2 | e4)!<(! (e2!<)! g2) |!f! a6 a2 | z8 || %65
w: * * * * me-|um,|_ _ cor _ me-|um, cor _|me- um.||
w: ..fi- at cor _ me-|um|_ _ _ _ _||||
[M:2/4] z4 | z4 | z4 |[M:3/4] z6 | z6 |[M:2/4] z4 | z4 | z4 | z4 |[M:3/4] z4 z!mf! B | %75
w: ||||||||||
w: |||||||||Can-|
[M:2/4] (3dd^c d!mf!e | e2 e2- | e4- | e4 |[M:3/4]!f!!<(! e^f fe!<)! fg | g2 g4- | g6- | %82
w: ||||can- tan- ti- bus or- *|ga- nis|_|
w: tan- ti- bus or- *|ga- nis,|_|||||
[M:4/4]!<(! g3!ff! e e2!<)! ee- | e6-!>)!!>(! ee | e2 ee-!>(! e4-!>)! | %85
w: * Cae- ci- li- a,|_ _ Cae-|ci- li- a, _|
w: |||
 e!f!"^poco rall."B B3 B B2- | B4 A2 A2- | A2 A3 A- A2- | A4- A z z2 |] %89
w: _ Cae- ci- li- a,|_ Cae- ci-|* li- a! _|_ _|
w: ||||
V:2
 x4 | x4 | x4 |[M:3/4] x6 | x6 |[M:2/4] x4 | x4 | x4 | x4 |[M:3/4] x6 |[M:2/4] z2 z B | %11
w: ||||||||||Can-|
 (3d^cB (Bc) | d4 | d4 |[M:3/4] dd dc (de) | d2 d4- | d6- | d z z4 ||[M:6/8] x6 | x6 | x6 | x6 | %22
w: tan- ti- bus or- *|ga-|nis,|_ _ _ _ _ _||||||||
 x6 | x6 | x6 | x6 | x6 | x6 | x6 | x6 | x6 | x6 | x6 | x6 | x6 | x6 | x6 | x6 | x6 | x6 || %40
w: ||||||||||||||||||
[M:4/4] _B2 _A2 B2 _d2 | _B4 _A4 | _A2 F2 _G2 A2 | F2 _G2 _E4 | x8 | x8 | x8 | x8 | x8 | x8 | x8 | %51
w: Fi- at cor _|me- um|im- * ma- *|cu- la- tum,||||||||
 x8 | x8 | x8 | x8 | x8 | x8 | _B4 (B4 | c8-) | c4- c z d2 | c8- | c2- (3c2 (c2 e2) d2 | %62
w: |||||||||||
 c4 (c2 e2) | d6 !~(!d2 | x8 ||[M:2/4] x4 | x4 | x4 |[M:3/4] x6 | x6 |[M:2/4] x4 | x4 | x4 | x4 | %74
w: ||||||||||||
[M:3/4] x6 |[M:2/4] z2 z B | (3d^cB Bc | d4 | d4 |[M:3/4] dd dc de | d2 d4- | d6- | %82
w: |Can-|tan- ti- bus or- *|ga-|nis,||||
[M:4/4] d3 ^c c2 dd- | d6- d^c | ^c2 BB- B4- | B x7 | x8 | x8 | x8 |] %89
w: |||||||
V:3
 z4 | z4 | z4 |[M:3/4] z6 | z4 z!p! B, |[M:2/4] (3DD^C (DE) | (3(D^CB,) B,C | D4- | D2 z!mp! (^F | %9
w: ||||Can|tan- ti- bus or- *|ga- * * nis, _|_|* can-|
[M:3/4] (3AAG AB B2) |[M:2/4] (A2 G2 | ^F2)!mf! (GB | (3BAB B[A^c]- | [Ac]4) | %14
w: tan- ti- bus or- ga- nis,|or- ga-|nis. Can- tan-|ti- bus or- ga- nis,|_|
[M:3/4]!f!!<(! (AA AG!<)! (AB) | A2 A4-) | A6- | A z x4 ||[M:6/8]!p! (F6- | F3 G3- | G3 F3- | %21
w: can- tan- ti- bus or- *|ga- nis|_||Cae-|* ci-|* li-|
 F3 G3- | G3) (F3- | F3 G3- | G3 A3 |!<(! B6)!<)! |!mp! (B3 B2 B | G3) z!mf! ((GA) | G(AB) (BAG) | %29
w: * a,|_ Cae-|* ci-|* li-|a,|Cae- ci- li-|a, Cae- *|ci- li- * a _ _|
 !tenuto!A2 !tenuto!G2 (!tenuto!^F2 | E3))!<(! E^FG- | G2 G!<)!!f! E2!>(! G!>)! |!f! E3!>(! G3- | %33
w: Do- mi- no|_ de- can- ta-|* bat di- cens,|di- cens,|
 G3!>)! z!mf! GA |!<(! (BAG cB)A!<)! |!f! c2 _B- B3- | B3!<(! GA_B!<)! | c2 _B- B3 | %38
w: _ de- can-|ta- * * * * bat|di- cens, _|_ Do- mi- no|di- cens, _|
!ff! c3!>(! _B3- | B6!>)! ||[M:4/4]!pp! _G8 | F8 | _E8 | _E8- | E4!p! (_E_D (E_G) | _E2 _D2 E4- | %46
w: di- cens:|_|Cor|_|me-|um,|_ fi- at cor _|me- * um,|
 E6!<(! _B2)!<)! |!mf! !tenuto!F3 !tenuto!_E3 !tenuto!F2 | F4!>(! [_E_G]4-!>)! | %49
w: _ _|ut non con-|fun- dar.|
 [EG]2 z2 z2!p!!<(! _B2!<)! | c2 c6- |!>(! c2 (_B4 B2-!>)! | B2 _G4 _B2- | B2 _A6- | %54
w: _ Cor|me- um,|_ im- ma-|* cu- la-|* tum|
 A2)!pp! (_A4 _G2- | G2 F6) |!mf!!<(! !tenuto!F3 !tenuto!_E3 !tenuto!F2!<)! | F4 [_E_G]2- [EG] z | %58
w: _ cor me-|* um,|ut non con-|fun- dar. _|
 z2 z!mp! =E (3=GG^F GA | A8- | A2 z!mf! E (3GG^F GA | A8- |!<(! A4!<)! (!tenuto!G2 !tenuto!B2) | %63
w: Can- tan- ti- bus or- ga-|nis,|_ can- tan- ti- bus or- ga-|nis,|_ cor _|
!f! A6 A2 | z8 ||[M:2/4] z4 | z4 | z4 |[M:3/4] z6 | z4 z!p! B, |[M:2/4] (3DD^C (DE) | %71
w: me- um.||||||Can-|tan- ti- bus or- *|
 (3(D^CB,) (B,C) | D4- | D2 z!mp! (^F |[M:3/4] (3AAG AB B2) |[M:2/4] (A2 G2 | ^F2)!mf! GB | %77
w: ga- * * nis, _|_|* can-|tan- ti- bus or- ga- nis,|or- ga-|nis. Can- tan-|
 (3BAB B[A^c]- | [Ac]4 |[M:3/4]!f!!<(! AA AG!<)! (AB) | A2 A4- | A6- | %82
w: ti- bus or- ga- nis,|_|can- tan- ti- bus or- *|ga- nis|_|
[M:4/4]!<(! A3!ff! A A2!<)! [GB][GB]- | [GB]6-!>)!!>(! [GB][^FA] | [^FA]2 GG-!>(! G4-!>)! | %85
w: * Cae- ci- li- a,|_ _ Cae-|ci- li- a, _|
 G!f![DG] [DG]3 [EA] [EA]2- | [EA]4 E2 E2- | E2 [DG]3 E- E2- | E4- E z z2 |] %89
w: _ Cae- ci- li- a,|_ Cae- ci-|* li- a! _|_ _|
V:4
 x4 | x4 | x4 |[M:3/4] x6 | x6 |[M:2/4] x4 | x4 | x4 | x4 |[M:3/4] x6 |[M:2/4] x4 | x4 | x4 | x4 | %14
[M:3/4] x6 | x6 | x6 | x6 ||[M:6/8] x6 | x6 | x6 | x6 | x6 | x6 | x6 | x6 | x6 | x6 | x6 | x6 | %30
 x6 | x6 | x6 | x6 | x6 | A2 G- G3- | G3 _EFG | A2 G- G3 | A3 G3- | G6 ||[M:4/4] x8 | x8 | x8 | %43
 x8 | x8 | x8 | x8 | x8 | x8 | x8 | x8 | x8 | x8 | x8 | x8 | x8 | x8 | x8 | x8 | x8 | x8 | x8 | %62
 x8 | x8 | x8 ||[M:2/4] x4 | x4 | x4 |[M:3/4] x6 | x6 |[M:2/4] x4 | x4 | x4 | x4 |[M:3/4] x6 | %75
[M:2/4] x4 | x4 | x4 | x4 |[M:3/4] x6 | x6 | x6 |[M:4/4] x8 | x8 | x8 | x8 | x8 | x8 | x8 |] %89
V:5
"^Andantino tranquillo" z2 z!p! (E | (3GG^F GA | A4- |[M:3/4]!>(! A4)!>)! z!p! (E | %4
w: Can-|tan- ti- bus or- ga-|nis,|_ can-|
w: ||||
 (3GG^F (GA GF) |[M:2/4] (E2 G2) | A4) |!mp! (6:4:6GBBAB^c | ^c4 |[M:3/4]!mp! d6 |[M:2/4]!<(! B4 | %11
w: tan- ti- bus or- * * *|ga- *|nis,|can- tan- ti- bus or- ga-|nis,|can-|tan-|
w: |||||||
 B2 d2!<)! | ^f2 d^c |!f! (6:4:6Bdd^c(de) |[M:3/4] e4 d2- | d2!<(! d3!<)! !tenuto!d | %16
w: ti- bus|or- ga- nis,|can- tan- ti- bus or- *|ga- *|* nis Cae-|
w: |||||
 !tenuto!d2 !tenuto!c!tenuto!c- c2- | !fermata!c6- ||[M:6/8]!p!!>(! c2 z z!mp! (cA)!>)! | %19
w: ci- li- a, _|_|* Cae- *|
w: |||
 c(de) e3 | fed- dBc | (dc)B!>(! A2 A- | A3-!>)! A z2 | z6 | z2 (G G2 A |!<(! A6)!<)! | %26
w: ci- li- * a|Do- mi- no _ de- can-|ta- * bat di- cens,|_ _||Cae- ci- li-|a.|
w: |||||||
 z!mf! (^cA) c(de) | e6 | d2 d e3 | !tenuto!^f2 !tenuto!e2 (!tenuto!d2 | c3) z!<(! AB | %31
w: Cae- * ci- li- *|a|Do- mi- no,|Do- mi- no|_ de- can-|
w: |||||
 d2!<)! d!f! c2 c |!f! c3 A!f! Bc | (dc)B e3- | e3 d3 | z!f! (_Bc (_ed)c | f2!>(! c- c3)!>)! | %37
w: ta- bat di- cens,|di- cens, de- can-|ta- * bat di-|* cens,|de- can- ta- * bat|di- cens, _|
w: ||||||
 z!f! (_Bc (_ed)c) |!ff! d3!>(! _e3- | e6!>)! ||[M:4/4]!pp!"^1 solo"!mp! _e8 | _d8 | _B8 | _B8 | %44
w: de- can- ta- * bat|di- cens:|_|||||
w: |||Cor|_|me-|um,|
!p!"^tutti" _A4 _B4 | _c4!mp! (_d_B cd | (3_B2 _c2 _A2-!>(! A4)!>)! | %47
w: fi- at|cor, im- * ma- *|cu- la- tum _|
w: |||
!mf! !tenuto![_A_d]3 !tenuto![G=c]3 !tenuto![_Gc]2 | [F_B]4!>(! [_E_A]4-!>)! | %49
w: ut non con-|fun- dar.|
w: ||
 [EA]2 z4!p!!<(! [_B_e]2!<)! | [cf]2 [cf]6- |!>(! [cf]2 ([_d_g]4 _e2-!>)! | e2 _d4 [cf]2- | %53
w: _ Cor-|me- um,|_ im- ma-|* cu- la-|
w: ||||
 [cf]2 [_Bf]6- | [Bf]2)!pp! (_e4 _d2- | d2 c6) | %56
w: * tum|_ cor me-|* um,|
w: |||
!mf!!<(! !tenuto![_A_d]3 !tenuto![Gc]3 !tenuto![_Gc]2!<)! | [F_B]4 [_E_A]2- [EA] z | %58
w: ut non con-|fun- dar. _|
w: ||
 z2 z!mp! [=Gc] (3[=A=d][Ad][Gc] [Ad][c=e] | [ce]8- | [ce]2 z!mf! [Gc] (3[Ad][Ad][Gc] [Ad][ce] | %61
w: Can- tan- ti- bus or- ga-|nis,|_ can- tan- ti- bus or- ga-|
w: |||
 [ce]8- |!<(! [ce]2!<)! (!tenuto![ce]4 !tenuto![ce]2) |!f! [Be]6 !~(![Be]2 | z8 || %65
w: nis,|_ cor _|me- um.-||
w: ||||
[M:2/4]"^Andantino tranquillo" z2 z!p! (E | (3GG^F GA | A4- |[M:3/4] A4) z!p! (E | (3GG^F GA GF | %70
w: Can-|tan- ti- bus or- ga-|nis,|_ can-|tan- ti- bus ot- * * *|
w: |||||
[M:2/4] E2 G2 | A4) |!mp! (6:4:6GBBAB^c | ^c4 |[M:3/4] d6 |[M:2/4] B4- | B2 d2 | ^f2 d^c | %78
w: ga- *|nis,|can- tan- ti- bus or- ga-|nis,|can-|tan-|ti- bus|or- ga- nis,|
w: ||||||||
!f! (6:4:6Bdd^cde |[M:3/4] e4 d2- | d2 d3!<(! !tenuto!d | !tenuto!d4!<)! !tenuto!e2 |[M:4/4] e8- | %83
w: can- tan- ti- bus or- *|ga- *|* nis Cae-|ci- li-|a,|
w: |||||
 e!>!d !>!d3 !>!e !>!e2- | e6!f! B2 | B4 ^c2 c2- | c8- | c8- | c4- c z z2 |] %89
w: _ Cae- ci- li- a,|_ Cae-|ci- li- a!|_|||
w: ||||||
V:6
 x4 | x4 | x4 |[M:3/4] x6 | x6 |[M:2/4] x4 | x4 | x4 | x4 |[M:3/4] x6 |[M:2/4] x4 | x4 | B2 BB | %13
w: |||||||||||||
 (6:4:6GBBA(B^c) |[M:3/4] B4 d2 | x6 | x6 | x6 ||[M:6/8] x6 | x6 | x6 | x6 | x6 | x6 | x6 | x6 | %26
w: |||||||||||||
 x6 | x6 | x6 | x6 | x6 | A2 A c2 c | x6 | x6 | x6 | x6 | x6 | x6 | _B3 B3- | B6 || %40
w: ||||||||||||||
[M:4/4] _B2 _A2 B2 _d2 | _B4 _A4 | _A2 F2 _G2 A2 | F2 _G2 _E4 | x8 | x8 | x8 | x8 | x8 | x8 | x8 | %51
w: Fi- at cor _|me- um|im- * ma- *|cu- la- tum,||||||||
 x8 | x8 | x8 | x8 | x8 | x8 | x8 | x8 | x8 | x8 | x8 | x8 | x8 | x8 ||[M:2/4] x4 | x4 | x4 | %68
w: |||||||||||||||||
[M:3/4] x6 | x6 |[M:2/4] x4 | x4 | x4 | x4 |[M:3/4] x6 |[M:2/4] x4 | x4 | B2 BB | (6:4:6GBBAB^c | %79
w: |||||||||||
[M:3/4] B4 d2 | x6 | x6 |[M:4/4] x8 | x8 | x8 | x8 | x8 | x8 | x8 |] %89
w: ||||||||||
V:7
!pp! !tenuto!A,,2 !tenuto!A,,2 | !tenuto!A,,2 !tenuto!A,,2 | (E,D, (E,G,) |[M:3/4] E,2 D,4- | %4
w: Can- tan-|ti- bus,|fi- at cor _|me- um,|
w: ||||
 D,2)!p! A,,4 |[M:2/4] A,,4 | E,4- | E,2 G,2- | G,2 A,2 |[M:3/4] B,6 |[M:2/4]!mf! E,2 ^F,2 | %11
w: _ can-|tan-|ti-|bus _|_ _||Can- *|
w: ||or-|* ga-||nis,|_ _|
 (G,2 A,2) |!<(! E,4 | G,4!<)! |[M:3/4]!f! ^F,4 A,2- | A,2 A,4- | A,6- | A, z z4 ||[M:6/8] z6 | %19
w: tan- *|ti-|bus|or- ga-|* nis|_|||
w: ||||||||
 z6 | z6 | z6 | z3!p! (2:3:2(D,C, | (2:3:2(D,F,) D,3 |!>(! C,3-!>)! C,) z2 | z2!mp! B,, B,,2 A,, | %26
w: |||Fi- at|cor _ me-|um. _|Cae- ci- li-|
w: |||||||
 A,,3- A,,2 A, | B,2!<(! A, A,3- | A,6!<)! | G,6 | G,6 | E,3!f! D,2 A, |!f! D,3!>(! A,3- | %33
w: a, _ Cae-|ci- li- a|_|Do-|mi-|no di- cens,|di- cens,|
w: |||||||
 A,6!>)! |!<(! G,3 F,3!<)! |!f! _E,2 F,- F,3- | F,3!<(! C,C,D,!<)! |!f! _E,2 F,- F,3 | %38
w: _|di- cens,|di- cens, _|_ Do- mi- no|di- cens, _|
w: |||||
!ff! _E,3!>(! F,3- | F,6!>)! ||[M:4/4]!pp! [F,_B,]8 | [_E,_A,]8 | [_D,_G,]8 | [_D,_G,]8 | %44
w: di- cens:|_|Cor|_|me-|um,|
w: ||||||
!p! [_C,_F,]4 [_D,_G,]4 | _F,2 _G,2 F,4 | _E,8 |!mf! !tenuto!_E,3 !tenuto!D,3 !tenuto!_D,2 | %48
w: fi- at|cor _ me-|um,|ut non con-|
w: ||||
 C,4!>(! _B,,4-!>)! | B,,2 z4!p! F,2 |!<(! _A,2 A,6-!<)! |!>(! A,2 (_B,4 C2-!>)! | C2 _B,4 _A,2- | %53
w: fun- dar.|_ Cor|me- um,|_ am- ma-|* cu- la-|
w: |||||
 A,2 _G,6- | G,2)!pp! (F,4 _E,2- | E,2 _D,6) |!mf!!<(! !tenuto!_E,3 !tenuto!=D,3 !tenuto!_D,2!<)! | %57
w: * tum|_ cor me-|* um,|ut non con-|
w: ||||
 C,4 _B,,2- B,, z | z2 z!mp! =D, (3=E,E,D, E,G, | G,8- | G,2 z!mf! D, (3E,E,D, E,G, | G,8- | %62
w: fun- dar. _|Can- tan- ti- bus or- ga-|nis,|_ can- tan- ti- bus or- ga-|nis,|
w: |||||
!<(! G,2!<)! (!tenuto!G,4 !tenuto!G,2) |!f! ^F,6 !~(!F,2 | z8 || %65
w: _ cor _|me- um.||
w: |||
[M:2/4]!pp! !tenuto!A,,2 !tenuto!A,,2 | !tenuto!A,,2 !tenuto!A,,2 | (E,D, (E,G,) | %68
w: Can- tan-|ti- bus,|fi- at cor _|
w: |||
[M:3/4] E,2 D,4- | D,2)!p! A,,4 |[M:2/4] A,,4 | E,4- | E,2 G,2 | G,2 A,2 |[M:3/4] B,6 | %75
w: me- um,|_ can-|tan-|ti-|bus, *|||
w: |||||||
[M:2/4] E,2 ^F,2 | G,2 A,2 |!<(! E,4 | G,4!<)! |[M:3/4]!f! ^F,4 A,2- | A,2 A,4- | [E,A,]6- | %82
w: Can- *|tan- *|ti-|bus|or- ga-|* nis|_|
w: |||||||
[M:4/4] [E,A,]8 | [E,A,]8 | [E,A,]8 | [E,A,]6 [A,,E,]2- | [A,,E,]8- | [A,,E,]8- | %88
w: |Cae-|ci-|li- a!|_||
w: ||||||
 [A,,E,]4- [A,,E,] z z2 |] %89
w: |
w: |
V:8
 x4 | x4 | x4 |[M:3/4] x6 | x6 |[M:2/4] x4 | A,,4 | A,,4 | E,D, E,G, |[M:3/4] E,2 D,4 |[M:2/4] x4 | %11
w: ||||||||fi- at cor _|me- um.||
 x4 | x4 | x4 |[M:3/4] x6 | E,2 E,4- | E,6- | E, z z4 ||[M:6/8] x6 | x6 | x6 | x6 | x6 | x6 | x6 | %25
w: ||||||||||||||
 x6 | x6 | x6 | x6 | x6 | x6 | x6 | x6 | x6 | x6 | x6 | x6 | x6 | x6 | x6 ||[M:4/4] x8 | x8 | x8 | %43
w: ||||||||||||||||||
 x8 | x8 | x8 | x8 | x8 | x8 | x8 | x8 | x8 | x8 | x8 | x8 | x8 | x8 | x8 | x8 | x8 | x8 | x8 | %62
w: |||||||||||||||||||
 x8 | x8 | x8 ||[M:2/4] x4 | x4 | x4 |[M:3/4] x6 | x6 |[M:2/4] x4 | A,,4 | A,,4 | E,D, E,G, | %74
w: |||||||||||fi- at cor _|
[M:3/4] E,2 D,4 |[M:2/4] x4 | x4 | x4 | x4 |[M:3/4] x6 | E,2 E,4- | x6 |[M:4/4] x8 | x8 | x8 | x8 | %86
w: me- um.||||||||||||
 x8 | x8 | x8 |] %89
w: |||
V:9
 x4 | x4 | x4 |[M:3/4] x6 | x6 |[M:2/4] x4 | x4 | x4 | x4 |[M:3/4] x6 |[M:2/4] x4 | x4 | x4 | x4 | %14
[M:3/4] x4 E,2- | x6 | x6 | x6 ||[M:6/8] x6 | x6 | x6 | x6 | x6 | x6 | x6 | x6 | x6 | x6 | x6 | %29
 x6 | x6 | x6 | x6 | x6 | x6 | x6 | x6 | x6 | x6 | x6 ||[M:4/4] x8 | x8 | x8 | x8 | x8 | x8 | x8 | %47
 x8 | x8 | x8 | x8 | x8 | x8 | x8 | x8 | x8 | x8 | x8 | x8 | x8 | x8 | x8 | x8 | x8 | x8 || %65
[M:2/4] x4 | x4 | x4 |[M:3/4] x6 | x6 |[M:2/4] x4 | x4 | x4 | x4 |[M:3/4] x6 |[M:2/4] x4 | x4 | %77
 x4 | x4 |[M:3/4] x4 E,2- | x6 | x6 |[M:4/4] x8 | x8 | x8 | x8 | x8 | x8 | x8 |] %89

